src/16/panel/pcloud-sync.svg

<svg xmlns="http://www.w3.org/2000/svg" width="16" height="16" version="1.1">
 <defs>
  <style id="current-color-scheme" type="text/css">
   .ColorScheme-Text { color:#bebebe; } .ColorScheme-Highlight { color:#5294e2; }
  </style>
 </defs>
 <path style="fill:currentColor" class="ColorScheme-Text" d="M 8 2 A 5 5 0 0 0 3.3964844 5.0488281 A 4 4 0 0 0 0 9 A 4 4 0 0 0 3.8085938 12.990234 L 3.8085938 13 L 4 13 L 8.0332031 13 A 4.5 4.5 0 0 1 8 12.5 A 4.5 4.5 0 0 1 12.5 8 A 4.5 4.5 0 0 1 15.693359 9.3320312 A 2.4761905 2.4761905 0 0 0 14.822266 8.4179688 A 2.5 2.5 0 0 0 15 7.5 A 2.5 2.5 0 0 0 12.578125 5.0039062 A 5 5 0 0 0 8 2 z M 6 5 L 7 5 L 9 5 L 10 5 L 10 6 L 10 7 L 10 8 L 9 8 L 7 8 L 7 11 L 6 11 L 6 8 L 6 7 L 6 6 L 6 5 z M 7 6 L 7 7 L 9 7 L 9 6 L 7 6 z"/>
 <path style="fill:currentColor" class="ColorScheme-Text" d="M 14.25,9.4689111 A 3.5,3.5 0 0 0 9.4689111,10.75 3.5,3.5 0 0 0 10.75,15.531089 3.5,3.5 0 0 0 15.531089,14.25 3.5,3.5 0 0 0 14.25,9.4689111 Z m -1.825135,0.5362259 -0.04089,0.695825 -0.0176,0.307831 A 1.5,1.5 0 0 0 11.200962,11.75 1.5,1.5 0 0 0 11.012227,12.678461 l -0.886609,0.586433 A 2.5,2.5 0 0 1 10.334936,11.25 2.5,2.5 0 0 1 12.424865,10.005137 Z m 2.271625,1.311524 A 2.5,2.5 0 0 1 14.665064,13.75 2.5,2.5 0 0 1 13.025488,14.94139 l 0.06482,-1.065403 A 1.5,1.5 0 0 0 13.799038,13.25 a 1.5,1.5 0 0 0 0.0592,-1.379879 l 0.257789,-0.169159 z"/>
</svg>

<svg xmlns="http://www.w3.org/2000/svg" width="16" height="16"><defs><style id="current-color-scheme" type="text/css">.ColorScheme-Text{color:#bebebe}</style></defs><path class="ColorScheme-Text" d="M8 2a5 5 0 0 0-4.604 3.049A4 4 0 0 0 0 9a4 4 0 0 0 3.809 3.99V13h4.224A4.5 4.5 0 0 1 8 12.5 4.5 4.5 0 0 1 12.5 8a4.5 4.5 0 0 1 3.193 1.332 2.476 2.476 0 0 0-.87-.914A2.5 2.5 0 0 0 15 7.5a2.5 2.5 0 0 0-2.422-2.496A5 5 0 0 0 8 2zM6 5h4v3H7v3H6V5zm1 1v1h2V6H7z" fill="currentColor"/><path class="ColorScheme-Text" d="M14.25 9.469a3.5 3.5 0 0 0-4.781 1.281 3.5 3.5 0 0 0 1.281 4.781 3.5 3.5 0 0 0 4.781-1.281 3.5 3.5 0 0 0-1.281-4.781zm-1.825.536l-.041.696-.018.308a1.5 1.5 0 0 0-1.165.741 1.5 1.5 0 0 0-.189.928l-.886.587a2.5 2.5 0 0 1 .209-2.015 2.5 2.5 0 0 1 2.09-1.245zm2.271 1.312a2.5 2.5 0 0 1-.03 2.433 2.5 2.5 0 0 1-1.64 1.191l.064-1.065a1.5 1.5 0 0 0 .709-.626 1.5 1.5 0 0 0 .06-1.38l.257-.169z" fill="currentColor"/></svg>
